X:1
T:Come unto Me
T:George Coles Stebbins
T:Come unto Me
T:Public Domain
T:Public Domain
C:George Coles Stebbins
Z:Public Domain
%%score ( 1 2 ) ( 3 4 )
L:1/8
M:2/4
K:Eb
V:1 treble 
V:2 treble 
V:3 bass 
V:4 bass 
V:1
 [EG]2 [B,E]>[B,F] | [EG]3 [EG] | [EA]>[EA] [EA][EA] | [EG]3 z | [EB]2 [Ec]>[EB] | [EG]2 [B,E]2 | %6
w: 1.~“Come un- to|Me,” it|is the Sav- ior’s|voice,|The Lord of|life, Who|
w: 2.~Wea- ry with|life’s long|strug- gle full of|pain,|O doubt- ing|soul, thy|
w: 3.~Oh, dy- ing|man, with|guilt and sin dis-|mayed,|With con- science|wak- ened,|
w: 4.~Rest, peace and|life, the|flow’rs of death- less|bloom,|The Sav- ior|gives us,|
 [CE]>[CE] [CF][EG] | [DF]3 z | [EG]2 [B,E]>[B,F] | [EG]3 [EG] | [EA]>[EA] [EB][EA] | [EG]3 z | %12
w: bids thy heart re-|joice;|O wea- ry|heart, with|hea- vy cares op-|pressed,|
w: Sav- ior calls a-|gain;|Thy doubts shall|van- ish|and thy sor- rows|cease,|
w: of thy God a-|fraid;|Twixt hopes and|fears— oh|end the anx- ious|strife,|
w: not be- yond the|tomb—|But here, and|now, on|earth, some glimpse is|giv’n|
 [EB]2 [DA][EG] | [Ec]>[CE] E[EF] | [EG]2 [DF]2 | E3 z ||[M:6/8]"^Refrain" ([EG]3 [EG])[EF][EG] | %17
w: “Come un- to|Me,” and I will|you rest.|||
w: “Come un- to|Me,” and I will|you peace.|||
w: “Come un- to|Me,” and I will|you life.|||
w: Of joys which|wait us thro’ the|of Heav’n.|||
 [GB]6 | ([AB]3 [AB])[Ac][AB] | [Be]3- [Be]2 z | ([Ae]3 [Ae])[Ad][Ec] | [EB]3 [EG]3 | %22
w: |||||
w: |||||
w: |||||
w: |||||
 [FA]2 [FA] [FA]2 [EA] | [E-A]3 [EG]2 z | [EB]2 [EB] (Bc)[EB] | [EG]6 | [EG]2 [EG] (GA)[EG] | %27
w: |||||
w: |||||
w: |||||
w: |||||
 (B,2 B, C2 B,) x3 |] %28
w: |
w: |
w: |
w: |
V:2
 x4 | x4 | x4 | x4 | x4 | x4 | x4 | x4 | x4 | x4 | x4 | x4 | x4 | x2 E x | x4 | E3 x ||[M:6/8] x6 | %17
w: |||||||||||||give||||
w: |||||||||||||give||||
w: |||||||||||||give||||
w: |||||||||||||gates||||
 x6 | x6 | x6 | x6 | x6 | x6 | x6 | x3 E2 x | x6 | x3 E2 x | E6 x3 |] %28
w: |||||||||||
w: |||||||||||
w: |||||||||||
w: |||||||||||
V:3
 [E,B,]2 [E,G,]>[E,A,] | [E,B,]3 [E,B,] | [E,C]>[E,C] [E,C][E,C] | [E,B,]3 z | %4
w: ~ ~ ~|~ ~|~ ~ ~ ~|~|
 [E,G,]2 [E,A,]>[E,G,] | [E,B,]2 [E,G,]2 | [C,G,]>[C,B,] [F,=A,][F,A,] | [B,,B,]3 z | %8
w: ~ ~ ~|~ ~|~ ~ ~ ~|~|
 [E,B,]2 [E,G,]>[E,A,] | [E,B,]3 [E,B,] | [E,C]>[E,C] [E,D][E,C] | [E,B,]3 z | %12
w: ~ ~ ~|~ ~|~ ~ ~ ~|~|
 [G,B,]2 [F,B,][E,B,] | [A,,A,]>[A,,A,] [A,,C][A,,_C] | [B,,B,]2 [B,,A,]2 | [E,G,]3 z || %16
w: ~ ~ ~|~ ~ ~ ~|~ ~|~|
[M:6/8] ([E,B,]3 B,)A,[E,B,] | [E,E]6 | ([F,D]3 D)D[D,D] | [G,E]3- [G,E]2 z | ([A,C]3 C)B,A, | %21
w: “Come * un- to|come|un- * to Me,|un- *|to * Me, and|
 [E,G,]3 [E,B,]3 | [B,,B,]2 [B,,E] [B,,D]2 [B,,C] | [E,-C]3 [E,B,]2 z | %24
w: give you|rest, I will give|you *|
 [E,G,]2 [E,G,] (G,A,)[E,G,] | (B,2 B, C2 B,) | [E,B,]2 [E,B,] (B,C)[E,B,] | (G,2 G, A,2 G,) x3 |] %28
w: rest, I will * give|rest.” * * *|||
V:4
 x4 | x4 | x4 | x4 | x4 | x4 | x4 | x4 | x4 | x4 | x4 | x4 | x4 | x4 | x4 | x4 ||[M:6/8] x3 E,2 x | %17
w: ||||||||||||||||Me,|
 x6 | x3 F,2 x | x6 | x3 A,2 A, | x6 | x6 | x6 | x3 E,2 x | E,6 | x3 E,2 x | E,6 E,3 |] %28
w: |Come||I will||||you||||

